X: 252
T: Polonäs, sexdregasamlingen del 2 nr 124
S: efter Anders Larsson
B: Sexdregasamlingen del 2 nr 124
B: http://www.smus.se/earkiv/fmk/browselarge.php?lang=sw&katalogid=Ma+12b&bildnr=00020
N: Se även [[Musik/2412|+]]
O: Sexdrega, Västergötland
R: Slängpolska
Z: 2008-05-31 av Nils L
M: 3/4
L: 1/16
K: Dm
A2d^c d4 e4 | f2ed g2fe f2ed | ^c4 g2fe f2ed | ^c2e2 A2f2 e2a2 | f2ef d4 d4 ::
f2ed g2fe f2ed | ^c2d2 e2a2 A4 | f2ed g2fe f2ed | A2d^c d8 :|
(:musicend:)

(:music:)
